X:1
T:Title
%%score { ( 1 4 ) | ( 2 3 ) }
L:1/8
M:9/8
K:Db
V:1 treble nm="Grand Piano"
V:4 treble 
V:2 bass 
V:3 bass 
V:1
 z3 z3[Q:1/4=100] FFF | A3- A2 A A2 A | B3 A3 dcB | B3 F3 .[=G,DF]3 | [G,CE]6[K:treble] AAA | %5
 A3- A2 A cBc |[M:5/4] d3- [DGd]3 ddcB |[M:9/8] [DA]3 B3 GFE |[M:3/4] D6 |[M:3/8] [FA]2 [FA] | %10
[M:9/8] [FA]3- [FA]2 [FA] [FA]2 [FA] | .[GB]3 .[GA]3 [Gc]2 [Gc] | %12
 [DFd]3- [DFd]2 [DFd] [DF]2 [D=G] | [CB]3 [CGA]3 AAA | [Fd]3- [Fd]2 [Fd] d2 c |[M:5/4] c3 B3 ddcB | %16
[M:9/8] A6 z3 |[M:3/4] [DA]6 |] %18
V:2
 z3 z3 [D,A,D][D,A,D][D,A,D] | [D,F,D]3- [D,F,D]2 [D,F,D] [D,F,D]2 [D,F,D] | [D,D]6 z3 | %3
 F,3 A,3 z ED | A,,6 [A,,G,]3 | D3- D2 D [E,A,]3 |[M:5/4] [D,A,]3 [G,B,]3 z4 | %7
[M:9/8] F,3 [E,C]3 B,A,G, |[M:3/4] [D,F,]6 |[M:3/8] [D,D]2 [D,D] | %10
[M:9/8] [D,D]3- [D,D]2 [D,D] [D,D]2 [D,D] | .[E,C]3 .[E,C]3 [A,,A,]2 [A,,A,] | %12
 [B,,F,]3- [B,,F,]2 [B,,B,] [E,B,]2 [E,B,] | [A,,A,]3 [A,,A,]3[K:treble] [A,CG][A,CG][A,CG] | %14
 [D,A,]3- [D,A,]2 [D,A,] [F,=A,E]2 [F,A,E] |[M:5/4] [G,B,E]3 [G,B,D]3 z4 | %16
[M:9/8] [A,,F,][A,,F,][A,,F,] [A,,E,]3 [A,,G,]3 |[M:3/4] [D,F,]6 |] %18
V:3
 x9 | x9 | G,3 F,3 [D,F,D]3 | [D,D]6 B,,3 | x9 | [D,F,]6 z3 |[M:5/4] x10 |[M:9/8] A,,6 C3 | %8
[M:3/4] x6 |[M:3/8] x3 |[M:9/8] x9 | x9 | x9 | x6[K:treble] x3 | x9 |[M:5/4] x10 |[M:9/8] x9 | %17
[M:3/4] x6 |] %18
V:4
 x9 | x9 | x9 | x9 | z3 z3[K:treble] C3 | z3 z3 G3 |[M:5/4] F4 z2 z4 |[M:9/8] x9 |[M:3/4] x6 | %9
[M:3/8] x3 |[M:9/8] x9 | x9 | x9 | x9 | x9 |[M:5/4] x10 |[M:9/8] DDD C3 [CA]3 |[M:3/4] x6 |] %18

